!!!COM: Palestrina, Giovanni Perluigi da
!!!OPR: Missa Sanctorum meritis
!!!OTL: Kyrie
**kern	**kern	**kern	**kern
*Ibass	*Itenor	*Icalto	*Icant
!Bassus	!Tenor	!Altus	!Cantus
*clefF4	*clefGv2	*clefG2	*clefG2
*k[]	*k[]	*k[]	*k[]
*E:phr	*E:phr	*E:phr	*E:phr
*M4/2	*M4/2	*M4/2	*M4/2
=1	=1	=1	=1
0r	0r	1A	1r
.	.	1B	1d
=2	=2	=2	=2
0r	0r	1c	1e
.	.	1d	1f
=3	=3	=3	=3
0r	1r	1e	1g
.	1D	2d	1a
.	.	2f	.
=4	=4	=4	=4
0r	1E	4e	2g
.	.	4d	.
.	.	4c	2.cc
.	.	4B	.
.	1F	2A	.
.	.	.	4b
.	.	2f	2a
=5	=5	=5	=5
0r	1G	2e	2.g
.	.	1d	.
.	.	.	4f
.	1A	.	2e
.	.	[2c	4d
.	.	.	4c
=6	=6	=6	=6
1r	1G	2c]	2d
.	.	2B	1g
1D	1r	1A	.
.	.	.	2f#
=7	=7	=7	=7
1E	1r	2G	1g
.	.	1c	.
1F	1A	.	1r
.	.	[2d	.
=8	=8	=8	=8
1G	1B	2d]	2r
.	.	1e	2g
1A	1c	.	2e
.	.	4d	2f
.	.	4c	.
=9	=9	=9	=9
[0G	1d	2B	1.g
.	.	1d	.
.	1e	.	.
.	.	[2c	2g
=10	=10	=10	=10
1G]	1d	2c]	1g
.	.	2B	.
2r	1c	1e	2r
2E	.	.	2g
=11	=11	=11	=11
2F	1c	2r	2a
2A	.	2e	1cc
1G	1d	2g	.
.	.	2g	[2b
=12	=12	=12	=12
1A	1c	1e	4b]
.	.	.	4a
.	.	.	1a
1E	1B	1e	.
.	.	.	2g#
=13	=13	=13	=13
2.F	1.A	2r	2a
.	.	2c	2f
4E	.	.	.
1D	.	2d	1f
.	4G	[2f	.
.	4F	.	.
=14	=14	=14	=14
1C	2.c	2f]	1g
.	.	2.e	.
.	4B	.	.
1D	[1A	.	1f
.	.	4d	.
.	.	[2d	.
=15	=15	=15	=15
1AA	1A]	2d]	2e
.	.	2c#	2a
1D	2r	1d	4f#
.	.	.	4g
.	2d	.	4a
.	.	.	4f#
=16	=16	=16	=16
2r	4B	1G	2.g
.	4c	.	.
2G	4d	.	.
.	4B	.	4f
2A	2c	1r	2e
[2c	2A	.	2c
=17	=17	=17	=17
2c]	1G	2r	1d
2B	.	2d	.
2.c	2r	2e	1g
.	2c	[2g	.
4B	.	.	.
=18	=18	=18	=18
1A	1c	2g]	2a
.	.	2f	1cc
1G	1d	2.g	.
.	.	.	[2b
.	.	4f	.
=19	=19	=19	=19
1A	1c	0e	4b]
.	.	.	4a
.	.	.	1a
1E	1B	.	.
.	.	.	2g#
=20	=20	=20	=20
0AA	0A	0e	0a
=21	=21	=21	=21
0r	1c	0r	0r
.	2c	.	.
.	2G	.	.
=22	=22	=22	=22
0r	2.A	1r	0r
.	4A	.	.
.	2.E	1g	.
.	4F	.	.
=23	=23	=23	=23
0r	1G	2g	1r
.	.	2d	.
.	2C	2.e	1g
.	[2E	.	.
.	.	4e	.
=24	=24	=24	=24
0r	4E]	1B	2g
.	4F	.	.
.	2G	.	2d
.	2C	1c	2.e
.	[2c	.	.
.	.	.	4e
=25	=25	=25	=25
1r	2c]	2G	1d
.	2B	2G	.
1c	[1e	[1g	4c
.	.	.	4d
.	.	.	4e
.	.	.	4f
=26	=26	=26	=26
2B	2e]	2g]	4g
.	.	.	4a
2G	2d	2g	2.b
2.A	1c	1e	.
.	.	.	4a
.	.	.	[2a
4A	.	.	.
=27	=27	=27	=27
1E	1B	2r	2a]
.	.	2e	2g#
1F	1A	2c	[1a
.	.	4A	.
.	.	4B	.
=28	=28	=28	=28
2F	0r	4c	2a]
.	.	4d	.
2C	.	1e	2g
2.D	.	.	1f
.	.	2d	.
4D	.	.	.
=29	=29	=29	=29
1AA	2r	4c	[0e
.	.	4B	.
.	2c	4A	.
.	.	4G	.
2r	2c	2A	.
2E	2G	2B	.
=30	=30	=30	=30
2AA	2.A	1c	0e]
1A	.	.	.
.	4A	.	.
.	1E	2B	.
2G#	.	2e	.
=31	=31	=31	=31
1A	2.F	2c	2r
.	.	1f	2cc
.	4G	.	.
1r	4A	.	2cc
.	4B	.	.
.	2c	2e	2g
=32	=32	=32	=32
1r	2F	1d	2.a
.	2D	.	.
.	.	.	4a
2r	[1A	2.c	[1e
2c	.	.	.
.	.	4B	.
=33	=33	=33	=33
2c	2A]	2A	1e]
2G	2B	2E	.
2.A	1c	1e	2r
.	.	.	[2a
4A	.	.	.
=34	=34	=34	=34
1E	1B	2r	2a]
.	.	1e	2g
2r	[1A	.	2.cc
2F	.	2c	.
.	.	.	4b
=35	=35	=35	=35
2F	0A]	2f	2.a
2C	.	1e	.
.	.	.	4g
2.D	.	.	1f
.	.	[2d	.
4D	.	.	.
=36	=36	=36	=36
4AA	2r	2d]	[0e
4BB	.	.	.
4C	2A	2c	.
4D	.	.	.
1E	2A	1B	.
.	2G	.	.
=37	=37	=37	=37
2r	1.c	2A	0e]
2C	.	4G	.
.	.	4F	.
2C	.	2.G	.
2GG	2B	.	.
.	.	8A	.
.	.	8B	.
=38	=38	=38	=38
1.AA	0A	0c	[0e
2AA	.	.	.
=39	=39	=39	=39
0E	0G#	0B	0e]
=40	=40	=40	=40
0r	0r	0r	1a
.	.	.	1a
=41	=41	=41	=41
0r	0r	1e	2b
.	.	.	2.g
.	.	1e	.
.	.	.	4f#
.	.	.	2g
=42	=42	=42	=42
0r	0r	2f	4a
.	.	.	4g
.	.	2.d	4f
.	.	.	4e
.	.	.	2.f
.	.	4c	.
.	.	2d	.
.	.	.	8e
.	.	.	8d
=43	=43	=43	=43
0r	1A	4e	2.c
.	.	4d	.
.	.	4c	.
.	.	4B	4d
.	1A	2.c	[1e
.	.	8B	.
.	.	8A	.
=44	=44	=44	=44
1E	2B	2.G	0e]
.	2.G	.	.
.	.	4A	.
1E	.	1B	.
.	4F#	.	.
.	2G	.	.
=45	=45	=45	=45
2F	4A	0A	0r
.	4G	.	.
2.D	4F	.	.
.	4E	.	.
.	2.F	.	.
4C	.	.	.
2D	.	.	.
.	8E	.	.
.	8D	.	.
=46	=46	=46	=46
4E	2C	2r	0r
4D	.	.	.
4C	2.c	2e	.
4BB	.	.	.
1C	.	1e	.
.	4B	.	.
.	4A	.	.
.	4G	.	.
=47	=47	=47	=47
1D	4F	2f	0r
.	4G	.	.
.	1A	2.d	.
1BB-	.	.	.
.	.	4c	.
.	2G	2d	.
=48	=48	=48	=48
1AA	4c	4e	2r
.	4B	4d	.
.	4A	4c	2e
.	4G	4B	.
2r	[1A	1c	1e
2A	.	.	.
=49	=49	=49	=49
2D	2A]	2.d	2f
1G	2B	.	2.d
.	.	4c	.
.	2G	2B	.
.	.	.	4c
2F	[2A	2A	2d
=50	=50	=50	=50
1E	2A]	1B	2e
.	2G#	.	2b
2r	4A	1A	1cc
.	4B	.	.
2A	4c	.	.
.	4d	.	.
=51	=51	=51	=51
1c	2e	2r	2g
.	2c	2e	1cc
1G	1d	2g	.
.	.	2d	2b
=52	=52	=52	=52
2E	0r	2.e	2g
1A	.	.	2a
.	.	4d	.
.	.	2c	1e
2G	.	[2e	.
=53	=53	=53	=53
2F	2r	2e]	1a
2F	2A	2d	.
1C	1c	1e	2g
.	.	.	[2cc
=54	=54	=54	=54
0r	1G	2d	2cc]
.	.	2.g	4b
.	.	.	4a
.	2E	.	2b
.	.	4f	.
.	[2A	4e	2cc
.	.	4d	.
=55	=55	=55	=55
0r	2A]	2c	2a
.	2G	2.d	2.b
.	2F	.	.
.	.	4c	4a
.	2F	2A	[2a
=56	=56	=56	=56
2r	1E	2B	2a]
2E	.	2e	2g#
1F	2r	2c	2a
.	2A	2f	2a
=57	=57	=57	=57
2.C	2G	1.e	1cc
.	1c	.	.
4D	.	.	.
4E	.	.	1g
4F	.	.	.
2G	2B	2d	.
=58	=58	=58	=58
2A	1c	2r	2e
1F	.	2A	1a
.	1r	1c	.
2E	.	.	2g
=59	=59	=59	=59
1D	1A	2.F	2f
.	.	.	2f
.	.	4G	.
1C	1c	4A	2e
.	.	4B	.
.	.	[2c	2e
=60	=60	=60	=60
1r	1G	2c]	2d
.	.	2B	1g
2r	2E	[1c	.
2AA	[2A	.	[2f
=61	=61	=61	=61
1C	2A]	1c]	4f]
.	.	.	4e
.	2G	.	1e
1D	2F	2.A	.
.	2F	.	2d
.	.	4B	.
=62	=62	=62	=62
1AA	1E	0c	[0e
1AA	1A	.	.
=63	=63	=63	=63
0E	0G#	0B	0e]
==	==	==	==
*-	*-	*-	*-
!!!CDT: 1525/^1526/-1594/2/2
!!!OCY: Italia
!!!AGN: Mass (Paraphrase)
!!!AST: renaissance, vocal
!!!ASW: Hymn
!!!PWK: Masses, Book 7
!!!RNB: Cadence finals: A,C
!!!YOR: Le Opere Complete, v. 23, p. 30
!!!YOO: Rome, Italy: Fratelli Scalera
!!!END: 1992//
!!!EED: John Miller
!!!YEC: Copyright 2000, John Miller
!!!YEN: United States of America
!!!YEM: Rights to all derivative electronic formats reserved.
!!!YEM: Refer to licensing agreement for further details.
!!!YEM: This file must be accompanied by the licensing agreement.
!!!YEM: A copy of the licensing agreement may be found at http://www.music-cog.ohio-state.edu/HumdrumDatabases/Palestrina/license.txt
!!!EMD: converted to Humdrum by Bret Aarden
